!! 00000] TT[WS
!!!OTL: Shiyang jin
!!!ARE: Asia, China,ÿShanxi Datong
!! Ethnic Group: Han
!! WI, 229
!!!SCT: J0274
!!!YEM: Copyright 1995, estate of Helmut Schaffrath.
**kern
*ICvox
*Ivox
*M2/4
*k[f#c#g#d#]
*E:
{4e
4f#
=1
8e
16d#
16c#
4B
=2
8.ee
16cc#
8b
8g#
=3
2f#}
=4
{8e
16c#
16e
8.f#
16f#
=5
8b
4.d#
=6
16c#
16e
16f#
16g#
16f#
16e
16d#
16c#
=7
2B}
=8
{8.B
16c#
4e
=9
16e
16f#
16e
16c#
4B
=10
8cc#
16cc#
16b
8g#
8b
=11
4.f#
8g#}
=12
{8e
16c#
16e
4f#
=13
8.b
16cc#
4g#
=14
8c#
16c#
16B
8e
8g#
=15
2f#
=16
8e
8B
8d#
8c#
=17
2B}
==
!!!AGN: Xiaodiao. Fengsuge
!!!ONB: ESAC (Essen Associative Code) Database: CHINA
!!!AMT: simple duple
!!!AIN: vox
!!!EED: Helmut Schaffrath
!!!EEV: 1.0
*-
